!!!OTL: Fan qiang
!!!ARE: Asia, China,ÿYunnan, Yaoan
!! II, 71
!!!SCT: C1490
!!!YEM: Copyright 1995, estate of Helmut Schaffrath.
**kern
*ICvox
*Ivox
*M2/4
*k[]
*C:
{16g
16e
16d
16e
8g
8g
=1
16a
16cc
16a
16g
4e}
=2
{8d
16g
16a
8.e
16d
=3
8c
8c
16A
16c
16A
16e
=4
16d
16c
4d
8e}
=5
{16G
8G
16A
16c
16A
8c
=6
16.d
32c
16G
16A
4c}
=7
{16c
8A
16e
16d
16c
8A
=8
8G
8G
16E
16G
16A
16c
=9
2G}
=10
{8d
16d
16e
4g
=11
16a
16cc
16a
16g
4e
=12
8.d
16e
4c
=13
8.B
16A}
{8G
8A
=14
8c
8A
8.e
16d
=15
8e
8e
16d
16e
16G
16A
=16
4.c
8r}
=17
{8.B
16A
8G
8A
=18
8c
8c
16.A
32c
16A
16e
=19
16d
16c
4d
8e}
=20
{16G
8G
16A
16A
16c
16A
16c
=21
16c
16A
16G
16A
4c}
=22
{16g
16e
16e
16g
16d
16c
8A
=23
8G
8G
16E
16G
16A
16c
=24
2G}
==
!!!AGN: Wuge, Huadeng
!!!AMT: simple duple
!!!AIN: vox
!!!EED: Helmut Schaffrath
!!!EEV: 1.0
*-
